X:13
T:Liberty
C: Traditional
M:4/4
R:Two Step
L:1/8
K:D
de|:"D"f2 A2 f2 A2|fgfe d2 ef|"G"g2 B2 g2 B2|gagf efge|
"D"f2 A2 f2 A2|fgfe d2 ef|"G"gfed "A"cABc|[1"D"dBAF D2 de:|2 "D"dBAF D2 FG||
|:"D"A2 AB AGFE|DFAd f2 d2|A2 AB AFED|"A"A,2 C2 E2 G2|
"D"A2 AB AGFE|DFAd fdef|"G"gfed "A"cABc|[1 "D"dBAF D2 FG:|2"D"dBAF D2|]

